!!!OTL: Muede kehrt ein Wandersmann zurueck beseligt von der ersten Liebe Glueck
!!!ARE: Europa, Mitteleuropa, Deutschland, Rheinlamd Pfalz, Mosel, Mehring
!!!SCT: D1015
!!!YEM: Copyright 1995, estate of Helmut Schaffrath.
**kern
*ICvox
*Ivox
*M4/4
*k[f#]
*G:
{8d
8d
=1
4.g
8f#
8g
8f#
8g
8a
=2
2d
8r}
{8d
8d
8f#
=3
4.a
8g
8f#
8a
8ee
8dd
=4
2b
4r}
{8g
8b
=5
4.dd
8dd
8cc
8b
8a
8g
=6
2ee
8r}
{8cc
8b
8a
=7
4.dd
8d
8d
8cc
8b
8a
=8
4g
2r}
==
!!!AGN: Liebes - Lied
!! rhythmische Korrektur: in Takt 5 Punktierung ergaenzt
!!    DVA-Signatur A 151 821
!!!ONB: ESAC (Essen Associative Code) Database: DVA
!!!AMT: simple quadruple
!!!AIN: vox
!!!EED: Helmut Schaffrath
!!!EEV: 1.0
*-
